assets/images/email.svg

<svg width="171" height="143" viewBox="0 0 171 143" fill="none" xmlns="http://www.w3.org/2000/svg">
<g clip-path="url(#clip0_6009_2390)">
<path d="M37.0295 2.83185C54.1923 -0.388388 106.97 -1.46157 128.9 2.83185C150.829 7.12546 163.347 26.913 167.654 41.9842C171.96 57.0554 169.808 67.821 165.501 85.4754C161.195 103.13 148.553 117.353 125.67 121.646C118.85 122.926 109.375 123.43 99.2658 123.436C94.0171 132.348 86.498 144.148 84.5813 142.1C82.7325 140.125 77.9113 130.099 74.4445 122.606C59.3234 121.643 46.6034 120.025 43.7033 118.756C37.3948 115.994 16.941 110.881 7.25216 90.4276C-2.43653 69.9738 -1.10979 54.3536 3.65743 36.1063C8.4247 17.8589 19.8672 6.05215 37.0295 2.83185Z" fill="#FF5C54"/>
<path d="M114.877 28C121.186 28 123 32.2534 123 36.0769C123 39.9004 122.395 79.9231 122.395 79.9231C122.395 83.7466 118.767 88 113.93 88C109.093 88 52.2558 86.8462 52.2558 86.8462C48.2485 86.8462 45 83.7466 45 79.9231C45 79.9231 45 41.0543 45 37.2308C45 33.4073 45 30.3077 52.2558 29.1538C59.5116 28 108.569 28 114.877 28ZM88.5349 60.3077C85.0136 62.9723 79.9631 62.9723 76.4419 60.3077C72.9206 57.643 49.8372 37.6274 49.8372 37.6274V79.9231C49.8372 81.1976 50.9201 82.2308 52.2558 82.2308H115.14C116.475 82.2308 117.558 81.1976 117.558 79.9231V37.6274C117.558 37.6274 92.0561 57.643 88.5349 60.3077ZM80.0698 55.0883C81.8304 56.4207 83.6977 58 86.7044 55.0883L114.877 33.7692H52.518C52.518 33.7692 78.3091 53.756 80.0698 55.0883Z" fill="#F9F7F3"/>
</g>
<defs>
<clipPath id="clip0_6009_2390">
<rect width="171" height="143" fill="white"/>
</clipPath>
</defs>
</svg>

<svg xmlns="http://www.w3.org/2000/svg" width="171" height="143" fill="none"><g clip-path="url(#a)"><path fill="#FF5C54" d="M37.03 2.832c17.162-3.22 69.94-4.294 91.87 0 21.929 4.293 34.447 24.081 38.754 39.152 4.306 15.071 2.154 25.837-2.153 43.491-4.306 17.655-16.948 31.878-39.831 36.171-6.82 1.28-16.295 1.784-26.404 1.79-5.249 8.912-12.768 20.712-14.685 18.664-1.849-1.975-6.67-12.001-10.136-19.494-15.122-.963-27.842-2.581-30.742-3.85-6.308-2.762-26.762-7.875-36.45-28.328-9.69-20.454-8.363-36.074-3.596-54.322C8.425 17.86 19.867 6.052 37.03 2.832Z"/><path fill="#F9F7F3" d="M114.877 28c6.309 0 8.123 4.253 8.123 8.077 0 3.823-.605 43.846-.605 43.846 0 3.824-3.628 8.077-8.465 8.077s-61.674-1.154-61.674-1.154c-4.008 0-7.256-3.1-7.256-6.923V37.231c0-3.824 0-6.923 7.256-8.077S108.569 28 114.877 28ZM88.535 60.308c-3.521 2.664-8.572 2.664-12.093 0-3.521-2.665-26.605-22.68-26.605-22.68v42.295c0 1.275 1.083 2.308 2.419 2.308h62.884c1.335 0 2.418-1.033 2.418-2.308V37.627s-25.502 20.016-29.023 22.68Zm-8.465-5.22c1.76 1.333 3.628 2.912 6.634 0l28.173-21.319H52.518S78.309 53.756 80.07 55.09Z"/></g><defs><clipPath id="a"><path fill="#fff" d="M0 0h171v143H0z"/></clipPath></defs></svg>
